X:1
T:[ID 7-100]
T:[ID 7-100]
T:Bezeichnung standardisiert: Anglaise Angeloise
T:Urheber unbekannt Datum in der hier transkribierten schriftlichen Quelle: 1792
C:Urheber unbekannt
C:Datum in der hier transkribierten schriftlichen Quelle: 1792
L:1/8
M:2/4
K:F
V:1 treble 
V:1
 c/B/ | AFAc | f3 g | ag/f/ ef | g/f/e/d/ cc/B/ | AFAc | f3 g | ag/f/ ef | g3 :: g | %10
 g/e/g/e/ g/e/g/e/ | afff | a/f/a/f/ a/f/a/f/ | bg g2 | afef | g/f/e/d/ cB | AGFE | F3 :: f | %19
 ccdc | B2 A2 | AGAB | c/B/c/d/ cf | ccdc | B2 A2 | ccde | f3 :| %27

